assets/Strawberry/Flat/strawberry_flat.svg

<svg width="32" height="32" viewBox="0 0 32 32" fill="none" xmlns="http://www.w3.org/2000/svg">
<path d="M15.9792 2C16.5315 2 16.9792 2.44772 16.9792 3V7.41C16.9792 7.96228 16.5315 8.41 15.9792 8.41C15.427 8.41 14.9792 7.96228 14.9792 7.41V3C14.9792 2.44772 15.427 2 15.9792 2Z" fill="#008463"/>
<path d="M18.1793 29.01L23.4493 23.04C29.1193 16.61 24.5593 6.48999 15.9793 6.48999C7.39931 6.48999 2.83931 16.61 8.50931 23.04L13.7793 29.01C14.9493 30.33 17.0093 30.33 18.1793 29.01Z" fill="#F8312F"/>
<path d="M9.61945 13.24C9.10945 13.24 8.68945 13.66 8.68945 14.17V15.1C8.68945 15.61 9.10945 16.03 9.61945 16.03C10.1295 16.03 10.5495 15.61 10.5495 15.1V14.17C10.5495 13.65 10.1295 13.24 9.61945 13.24Z" fill="#1C1C1C"/>
<path d="M11.8694 19.07C11.8694 18.56 12.2894 18.14 12.7994 18.14C13.3194 18.14 13.7294 18.56 13.7294 19.07V20C13.7294 20.51 13.3094 20.93 12.7994 20.93C12.2894 20.93 11.8694 20.51 11.8694 20V19.07Z" fill="#1C1C1C"/>
<path d="M18.2394 19.07C18.2394 18.56 18.6594 18.14 19.1694 18.14C19.6894 18.14 20.0994 18.56 20.0994 19.07V20C20.0994 20.51 19.6794 20.93 19.1694 20.93C18.6594 20.93 18.2394 20.51 18.2394 20V19.07Z" fill="#1C1C1C"/>
<path d="M15.0594 14.17C15.0594 13.66 15.4794 13.24 15.9894 13.24C16.4994 13.24 16.9194 13.65 16.9194 14.17V15.1C16.9194 15.61 16.4994 16.03 15.9894 16.03C15.4794 16.03 15.0594 15.61 15.0594 15.1V14.17Z" fill="#1C1C1C"/>
<path d="M15.9894 22.69C15.4794 22.69 15.0594 23.11 15.0594 23.62V24.55C15.0594 25.06 15.4794 25.48 15.9894 25.48C16.4994 25.48 16.9194 25.06 16.9194 24.55V23.62C16.9194 23.11 16.4994 22.69 15.9894 22.69Z" fill="#1C1C1C"/>
<path d="M21.4395 14.17C21.4395 13.66 21.8595 13.24 22.3695 13.24C22.8795 13.24 23.2995 13.65 23.2995 14.17V15.1C23.2995 15.61 22.8795 16.03 22.3695 16.03C21.8595 16.03 21.4395 15.61 21.4395 15.1V14.17Z" fill="#1C1C1C"/>
<path d="M6.1394 11.44H11.6794C13.4284 11.44 14.9815 10.6162 15.9759 9.3374C16.9721 10.6162 18.5262 11.44 20.2694 11.44H25.8094C25.8094 8.44 23.3794 6 20.3694 6H11.5794C8.5794 6 6.1394 8.44 6.1394 11.44Z" fill="#00D26A"/>
</svg>

<svg xmlns="http://www.w3.org/2000/svg" width="32" height="32" fill="none"><path fill="#008463" d="M15.98 2a1 1 0 0 1 1 1v4.41a1 1 0 1 1-2 0V3a1 1 0 0 1 1-1Z"/><path fill="#F8312F" d="m18.18 29.01 5.27-5.97c5.67-6.43 1.11-16.55-7.47-16.55S2.84 16.61 8.51 23.04l5.27 5.97a2.94 2.94 0 0 0 4.4 0Z"/><path fill="#1C1C1C" d="M9.62 13.24c-.51 0-.93.42-.93.93v.93c0 .51.42.93.93.93s.93-.42.93-.93v-.93c0-.52-.42-.93-.93-.93ZM11.87 19.07c0-.51.42-.93.93-.93.52 0 .93.42.93.93V20c0 .51-.42.93-.93.93s-.93-.42-.93-.93v-.93ZM18.24 19.07c0-.51.42-.93.93-.93.52 0 .93.42.93.93V20c0 .51-.42.93-.93.93s-.93-.42-.93-.93v-.93ZM15.06 14.17c0-.51.42-.93.93-.93s.93.41.93.93v.93c0 .51-.42.93-.93.93s-.93-.42-.93-.93v-.93ZM15.99 22.69c-.51 0-.93.42-.93.93v.93c0 .51.42.93.93.93s.93-.42.93-.93v-.93c0-.51-.42-.93-.93-.93ZM21.44 14.17c0-.51.42-.93.93-.93s.93.41.93.93v.93c0 .51-.42.93-.93.93s-.93-.42-.93-.93v-.93Z"/><path fill="#00D26A" d="M6.14 11.44h5.54a5.428 5.428 0 0 0 4.296-2.103 5.434 5.434 0 0 0 4.293 2.103h5.54c0-3-2.43-5.44-5.44-5.44h-8.79c-3 0-5.44 2.44-5.44 5.44Z"/></svg>
